X:1
T:Have I Told You Lately That I Love You?
M:4/4
L:1/4
K:C
 C D| E3 E| F E C E| E D3-| D2 D E| F3 F| G F D F| E4-| E2| G G| A3 c|\
 d c B A| A G G ^F| A G2 E| E D2 E| F2 E D| C4-| C z||

